X:1
T:Jubilate, 66.66.88
T:Jubilate, 66.66.88
T:Horatio William Parker, 1894
T:Public Domain Courtesy of the Cyber Hymnal™
C:Horatio William Parker, 1894
Z:Public Domain
Z:Courtesy of the Cyber Hymnal™
%%score ( 1 2 ) ( 3 4 )
L:1/8
Q:1/4=110
M:4/4
K:C
V:1 treble 
V:2 treble 
V:3 bass 
V:4 bass 
V:1
 G2 | c3 G E2 C2 | [CA]6 [^CG]2 | [DF]2 (EF) [DG]2 [B,D]2 | [CE]8 | E2 E>E ^F2 ^G2 | A2 B2 c2 A2 | %7
 d6 [D=F]2 | [DG]6 G2 | [B,D]3 [B,E] [B,F]2 G2 | [CE]3 [CF] [CG]2 [^CA]2 | %11
 [DF]2 [EA]2 [Fd]2 [^Fc]2 | [GB]3 [^FA] G2 [Ec]2 | [EG]3 [FA] [G_B]2 [Ec]2 | %14
 [FA]3 [FB] [Fc]2 [^Fd]2 | [Ge]2 z E E2 F2 | G4 [Fd]4 | [Ec]6 |] %18
V:2
 G2 | c3 G E2 C2 | x8 | x2 D2 x4 | x8 | E2 E>E ^F2 ^G2 | A2 B2 c2 A2 | G4 ^F2 x2 | x6 G2 | x6 G2 | %10
 x8 | x8 | x4 G2 x2 | x8 | x8 | x3 E E2 F2 | G4 x4 | x6 |] %18
V:3
 G,2 | C3 G, E,2 C,2 | [F,A,]6 [E,A,]2 | [D,A,]2 [C,A,]2 [B,,G,]2 [G,,G,]2 | [C,G,]8 | %5
 E,2 E,>E, ^F,2 ^G,2 | A,2 B,2 C2 A,2 | [D,C]4 [D,C]4 | [G,B,]6 [G,,G,]2 | %9
 [F,G,]3 [E,G,] [D,G,]2 [G,,G,]2 | G,3 [F,G,] [E,G,]2 [A,,G,]2 | [D,A,]2 [C,A,]2 [B,,B,]2 [A,,C]2 | %12
 [G,,D]3 [A,,D] [B,,D]2 [C,C]2 | [G,C]3 [F,C] [E,C]2 [C,C]2 | [F,C]3 [G,C] [A,C]2 [A,C]2 | %15
 [G,C]2 z E, E,2 F,2 | G,4 [G,B,]4 | [C,C]6 |] %18
V:4
 G,2 | C3 G, E,2 C,2 | x8 | x8 | x8 | E,2 E,>E, ^F,2 ^G,2 | A,2 B,2 C2 A,2 | x8 | x8 | x8 | %10
 G,3 x5 | x8 | x8 | x8 | x8 | x4 E,2 F,2 | G,4 x4 | x6 |] %18

